X: 20972
T: The Qeen of the May
T: The Queen of the May
%R: march, reel
B: James Oswald "The Caledonian Pocket Companion" v.2 p.97 #2
Z: 2019 John Chambers <jc:trillian.mit.edu>
M: C
L: 1/8
K: G
|:\
B3c d3e | (d<B)(c<A) {A2}B4 | c3e df {a}gf/e/ | d2Tc>B {B2}A4 |\
d2d2 (d^c)(BA) | (BG)(AF) {F2}G4 | (3(ed^c) (3(BAG) FdBg | (fe)(d^c) d4 :|
|:\
(dB)(TAG) (FA)(GB) | (Ac)(Bd) {B2}A4 | g3B (ce)(d=f) | (eg)(=fe) {e2}d4 |\
(3(edc) g2 (3dcB g2 | ^fedc {c2}B4 | c3e dg ({f}ed/c/) | B2(TA3/G//A//) G4 :|


